X:9
T:A Night in the Glen
R:jig
C:Paul S. Cranford
O:20th Century Cape Breton
D:The Lighthouse, Cranford Publications
B:The Lighthouse Collection, ISBN 0-9691181-5-5
N:Contacts ...
N:..... Cranford Publications <http://www.cranfordpub.com>
H:Composed after an all night session in Pipers Glen.
Z:This abc transcription is for personal use only,
Z:provided this notice remains attached.
Z:Used by permission of the composer and publisher.
Z:Paul Stewart Cranford 
L:1/8
Q:312
M:6/8
K:Bdor
P:A
fBB fed|cAA cde|fBB fed|fga ece|!
fBB fed|cAA cde|fga ece|fec B3:|!
P:B
|:FBB dBB|fed cAA|FBA Bce|fecB3|!
fga ece|fed cAA|fga ece|fec B3:|!
P:C
|:BfB bBf|agf ecA|BfB bBf|dcA B3|!
BfB bBf|agf ecA|dcBecA|FGA B3:|!
P:D
|:bBB aBB|gBB fga|bBB agf|eAd cBA|!
bBB aBB|gBB fga|bag agf|eAc B3:|!
